**kern
*staff3
*tb16
=1-
*clefF4
*k[f#]
*met(c)
*M4/4
8r
.
4G\
.
.
.
4G\
.
.
.
8r
.
4r
.
.
.
=2
4.C/
.
.
.
.
.
8BB/
.
2AA/
.
.
.
.
.
.
.
=3
2D\
.
.
.
.
.
.
.
4r
.
.
.
4c\
.
.
.
=4
!!linebreak:original
4B\
.
.
.
4BB/
.
.
.
4C/
.
.
.
4D\
.
.
.
=5
4GG/
.
.
.
4r
.
.
.
2r
.
.
.
.
.
.
.
=6
!!linebreak:original
2r
.
.
.
.
.
.
.
4AA/ 4F#/
.
.
.
4AA\ 4G\
.
.
.
=7
8D\L
.
8d\
.
8A\
.
8F#\J
.
4D\
.
.
.
4BB/
.
.
.
=8
4.E\
.
.
.
.
.
8d\
.
8c\L
.
8d\
.
8c\
.
8B\J
.
=9
!!linebreak:original
4A\
.
.
.
4AA/
.
.
.
4C/
.
.
.
4C/
.
.
.
=10
2BB/
.
.
.
.
.
.
.
4AA/
.
.
.
4D\
.
.
.
=11
!!linebreak:original
2GG/
.
.
.
.
.
.
.
4.C/
.
.
.
.
.
8c\
.
=12
8d\
.
8r
.
8c\
.
8r
.
8B\
.
8r
.
4A\
.
.
.
=13
!!linebreak:original
4.C/
.
.
.
.
.
8BB/
.
2D\
.
.
.
.
.
.
.
=14
4C/
.
.
.
8BB/L
.
8AA/J
.
4D\
.
.
.
4D\
.
.
.
=15
4GG/
.
.
.
4r
.
.
.
==
*-
